dist/assets/img/contacts/wa.svg

<svg width="17" height="17" viewBox="0 0 17 17" fill="none" xmlns="http://www.w3.org/2000/svg">
<g clip-path="url(#clip0)">
<path d="M14.2789 2.99377C12.7777 1.49815 10.7806 0.673949 8.65513 0.673096C6.5344 0.673096 4.53414 1.49656 3.02303 2.99182C1.50924 4.48964 0.674802 6.48015 0.672852 8.58941V8.59185V8.59331C0.673095 9.86996 1.0085 11.1578 1.64518 12.3334L0.694676 16.6537L5.06475 15.6597C6.17156 16.2175 7.40652 16.5116 8.65208 16.5121H8.65525C10.7756 16.5121 12.7759 15.6885 14.2872 14.1931C15.8024 12.6941 16.6372 10.7061 16.6381 8.59551C16.6387 6.49978 15.801 4.51037 14.2789 2.99377ZM8.65513 15.2648H8.65232C7.53393 15.2643 6.42577 14.9835 5.44783 14.4525L5.24117 14.3404L2.33527 15.0013L2.96646 12.1327L2.84478 11.9229C2.2398 10.8796 1.92012 9.72793 1.92012 8.59197C1.92244 4.91515 4.94344 1.92036 8.65488 1.92036C10.4479 1.9211 12.1326 2.61618 13.3987 3.87734C14.6838 5.15802 15.3914 6.83348 15.3907 8.59514C15.3893 12.2728 12.3677 15.2648 8.65513 15.2648Z" fill="#656565"/>
<path d="M6.4832 5.10095H6.13328C6.01148 5.10095 5.81372 5.14655 5.64644 5.32858C5.47904 5.51073 5.00732 5.951 5.00732 6.8464C5.00732 7.7418 5.66168 8.60696 5.75288 8.72852C5.8442 8.84995 7.016 10.7461 8.87191 11.4756C10.4143 12.0818 10.7283 11.9612 11.063 11.9308C11.3978 11.9006 12.1433 11.4907 12.2955 11.0658C12.4477 10.6409 12.4477 10.2766 12.4021 10.2005C12.3563 10.1247 12.2345 10.0792 12.052 9.98822C11.8694 9.89714 10.9745 9.44944 10.8071 9.38861C10.6397 9.32801 10.518 9.29765 10.3962 9.47993C10.2744 9.66183 9.91581 10.0827 9.80925 10.2041C9.70281 10.3257 9.59625 10.3409 9.41361 10.2499C9.23097 10.1585 8.64891 9.96298 7.95139 9.34313C7.40847 8.86068 7.03173 8.24546 6.92517 8.06331C6.81873 7.88128 6.91383 7.78276 7.00539 7.69193C7.08745 7.61049 7.19827 7.49905 7.28959 7.39285C7.38079 7.28654 7.40676 7.2107 7.46772 7.08927C7.52856 6.96783 7.49808 6.86151 7.45248 6.77056C7.40676 6.67948 7.05636 5.77957 6.89395 5.41966H6.89408C6.75728 5.11656 6.61329 5.10632 6.4832 5.10095Z" fill="#656565"/>
</g>
<defs>
<clipPath id="clip0">
<rect width="15.9806" height="15.9806" fill="white" transform="translate(0.672852 0.673096)"/>
</clipPath>
</defs>
</svg>

<svg width="17" height="17" viewBox="0 0 17 17" fill="none" xmlns="http://www.w3.org/2000/svg"><g clip-path="url(#clip0)" fill="#656565"><path d="M14.279 2.994A7.92 7.92 0 008.655.674a7.96 7.96 0 00-5.632 2.318 7.84 7.84 0 00-2.35 5.597v.004a7.88 7.88 0 00.972 3.74l-.95 4.32 4.37-.993a7.999 7.999 0 003.587.852h.003c2.12 0 4.12-.824 5.632-2.319a7.83 7.83 0 002.351-5.597c0-2.096-.837-4.086-2.36-5.602zm-5.624 12.27h-.003a6.741 6.741 0 01-3.204-.811l-.207-.113-2.906.661.631-2.868-.121-.21C2.24 10.88 1.92 9.728 1.92 8.592 1.922 4.915 4.943 1.92 8.655 1.92a6.684 6.684 0 014.744 1.957c1.285 1.281 1.992 2.956 1.992 4.718-.002 3.678-3.023 6.67-6.736 6.67z"/><path d="M6.483 5.101h-.35a.672.672 0 00-.487.228c-.167.182-.639.622-.639 1.517 0 .896.655 1.761.746 1.883.091.121 1.263 2.017 3.119 2.747 1.542.606 1.856.485 2.191.455.335-.03 1.08-.44 1.232-.865.153-.425.153-.79.107-.866-.046-.075-.167-.12-.35-.212-.183-.09-1.077-.539-1.245-.6-.167-.06-.289-.09-.41.092-.123.182-.481.603-.588.724-.106.122-.213.137-.395.046-.183-.091-.765-.287-1.463-.907-.543-.482-.92-1.098-1.026-1.28-.106-.182-.011-.28.08-.371.082-.082.193-.193.285-.3.09-.105.117-.181.178-.303.06-.121.03-.227-.016-.318-.045-.092-.396-.991-.558-1.351-.137-.303-.28-.314-.41-.319z"/></g><defs><clipPath id="clip0"><path fill="#fff" transform="translate(.673 .673)" d="M0 0h15.981v15.981H0z"/></clipPath></defs></svg>
